packages/ui-icons/svg/Line/calendar-add.svg

<svg viewBox="0 0 1920 1920" version="1.1" xmlns="http://www.w3.org/2000/svg">
    <path d="M1411.8238,9.99999997e-05 C1442.9948,9.99999997e-05 1468.2938,25.2991 1468.2938,56.4711 L1468.2938,56.4711 L1468.2938,112.9411 L1637.7058,112.9411 C1731.1088,112.9411 1807.1178,188.9511 1807.1178,282.3531 L1807.1178,282.3531 L1807.1178,1920.0001 L112.9998,1920.0001 L112.9998,282.3531 C112.9998,188.9511 189.0088,112.9411 282.4118,112.9411 L282.4118,112.9411 L451.8228,112.9411 L451.8228,56.4711 C451.8228,25.2991 477.1228,9.99999997e-05 508.2938,9.99999997e-05 C539.4658,9.99999997e-05 564.7648,25.2991 564.7648,56.4711 L564.7648,56.4711 L564.7648,112.9411 L1355.3528,112.9411 L1355.3528,56.4711 C1355.3528,25.2991 1380.6518,9.99999997e-05 1411.8238,9.99999997e-05 Z M1694.1758,564.7051 L225.9418,564.7051 L225.9418,1807.0581 L1694.1758,1807.0581 L1694.1758,564.7051 Z M1016.5294,790.5878 L1016.5294,1129.4118 L1355.3534,1129.4118 L1355.3534,1242.3528 L1016.5294,1242.3528 L1016.5294,1581.1768 L903.5884,1581.1768 L903.5884,1242.3528 L564.7644,1242.3528 L564.7644,1129.4118 L903.5884,1129.4118 L903.5884,790.5878 L1016.5294,790.5878 Z M451.8228,225.8821 L282.4118,225.8821 C251.3528,225.8821 225.9418,251.1811 225.9418,282.3531 L225.9418,282.3531 L225.9418,451.7651 L1694.1758,451.7651 L1694.1758,282.3531 C1694.1758,251.1811 1668.7648,225.8821 1637.7058,225.8821 L1637.7058,225.8821 L1468.2938,225.8821 L1468.2938,282.3531 C1468.2938,313.5251 1442.9948,338.8241 1411.8238,338.8241 C1380.6518,338.8241 1355.3528,313.5251 1355.3528,282.3531 L1355.3528,282.3531 L1355.3528,225.8821 L564.7648,225.8821 L564.7648,282.3531 C564.7648,313.5251 539.4658,338.8241 508.2938,338.8241 C477.1228,338.8241 451.8228,313.5251 451.8228,282.3531 L451.8228,282.3531 L451.8228,225.8821 Z" stroke="none" stroke-width="1" fill-rule="evenodd"/>
</svg>

<svg viewBox="0 0 1920 1920" version="1.1" xmlns="http://www.w3.org/2000/svg">
    <path d="M1637.706 112.941c93.403 0 169.412 76.01 169.412 169.412V1920H113V282.353c0-93.402 76.009-169.412 169.412-169.412h169.41v-56.47c0-31.172 25.3-56.47 56.472-56.47s56.47 25.298 56.47 56.47v56.47h790.589v-56.47c0-31.172 25.299-56.47 56.47-56.47 31.172 0 56.47 25.298 56.47 56.47v56.47h169.413zM225.942 1807.058h1468.234V564.705H225.942v1242.353zM1694.176 451.765V282.353c0-31.172-25.411-56.47-56.47-56.47h-169.412v56.47c0 31.172-25.3 56.471-56.47 56.471-31.172 0-56.471-25.299-56.471-56.47v-56.472H564.765v56.471c0 31.172-25.3 56.471-56.471 56.471-31.171 0-56.471-25.299-56.471-56.47v-56.472H282.412c-31.06 0-56.47 25.3-56.47 56.471v169.412h1468.234zM903.588 1581.177v-338.824H564.764v-112.941h338.824V790.588h112.941v338.824h338.824v112.94H1016.53v338.825H903.59z" stroke="none" stroke-width="1" fill-rule="evenodd"/>
</svg>
